hero/outline/bell.svg

<svg width="24" height="24" viewBox="0 0 24 24" fill="none" xmlns="http://www.w3.org/2000/svg">
<path d="M14.8569 17.0817C16.7514 16.857 18.5783 16.4116 20.3111 15.7719C18.8743 14.177 17.9998 12.0656 17.9998 9.75V9.04919C17.9999 9.03281 18 9.01641 18 9C18 5.68629 15.3137 3 12 3C8.68629 3 6 5.68629 6 9L5.9998 9.75C5.9998 12.0656 5.12527 14.177 3.68848 15.7719C5.4214 16.4116 7.24843 16.857 9.14314 17.0818M14.8569 17.0817C13.92 17.1928 12.9666 17.25 11.9998 17.25C11.0332 17.25 10.0799 17.1929 9.14314 17.0818M14.8569 17.0817C14.9498 17.3711 15 17.6797 15 18C15 19.6569 13.6569 21 12 21C10.3431 21 9 19.6569 9 18C9 17.6797 9.05019 17.3712 9.14314 17.0818" stroke="#0F172A" stroke-width="1.5" stroke-linecap="round" stroke-linejoin="round"/>
</svg>

<svg viewBox="0 0 24 24" xmlns="http://www.w3.org/2000/svg"><path fill="none" stroke="#000" stroke-linecap="round" stroke-linejoin="round" stroke-width="1.5" d="M14.85 17.08h-.001c1.86-.23 3.69-.67 5.45-1.31v-.001c-1.5-1.66-2.32-3.8-2.311-6.03v-.7 -.05 0c0-3.32-2.69-6-6-6 -3.32 0-6 2.68-6 6v.75H5.98c0 2.22-.83 4.37-2.32 6.02 1.73.64 3.56 1.08 5.455 1.31m5.714 0v0c-1.9.22-3.82.22-5.72 0m5.714 0v0c.5 1.57-.37 3.26-1.95 3.77 -1.58.5-3.27-.37-3.78-1.95 -.2-.6-.2-1.24 0-1.84"/></svg>
